X: 337
T: Bin Gül Çıkarırdım...
C: Lem´i Atlı
O: Turkey
F: http://compmusic.upf.edu/node/140
N: nihavent--sarki--senginsemai--bin_gul--lemi_atli
N: makam= nihavent
N: form= sarki
N: usul= senginsemai = 6/4
M: 6/4
L: 1/16
K: C _B _e  
Q: 1/4=72
%%MIDI tuningsystem comma53
G3A B3c d3c B3A A8  | ^f3e e3d d3^c BABc d8  | \
w:  ARANAĞME  |   | 
g3a b3a g3^f e3d ^c8  | 
w:   | 
d2fe eddc cBBA AGG^F G8  | G3A B3c d3c B3A A8  | 
w:   |  ARANAĞME  | 
^f3e e3d d3^c BABc d8  | g3a b3a g3^f e3d ^c8  | \
w:   |   | 
d2fe eddc cBBA AGG^F G8  | 
w:   | 
G4 d4 d4 d4 e6ed  | d8 A4 BAG^F G8  | \
w:  Bin  gül  çı ka rır  |  dım  sa na  *  *  *  kal  | 
^f2gf (3ed^cd2 e4 f4 g3/2f/(3ede (3gfeed  | 
w:  bim *  *  *  *  *  *  de ki  kül  | 
d8 dedc BAG^F G8  | G4 d4 d4 d4 e6ed  | \
w:  den   SAZ  |  Bin  gül  çı ka rır  | 
d8 A4 BAG^F G8  | 
w:  dım  sa na  *  *  *  kal  | 
^f2gf (3ed^cd2 e4 f4 g3/2f/(3ede (3gfeed  | \
w:  bim *  *  *  *  *  *  de ki  kül  | 
d8 dedc BABc d8  | 
w:  den   SAZ  | 
f3e d3c B4 f2g2 _a2g2 f2e2  | e2d4c2 c2dc B2AB c6z2  | 
w:  Bir  *  gün  *  be ni  *  an  |  say *  *  dın  *  *  e *  *  ğer   | 
d2ed cBAB G4 A4 B3/2A/G2 BA(3G^FG  | \
w:  sen  *  *  *  *  *  *  de  gö nül  | 
A8 ABAG AG^FG A8  | 
w:  den   SAZ  | 
G4 d4 c4 B4 e6ed  | d6{e}dc c2dc B2AB G6z2  | \
w:  Bir  gün  be ni  an  |  say *  *  *  dın  *  *  e *  *  ğer   | 
d2ed cBAB G4 A4 B3/2A/(3G^FG B3/2A/GF  | 
w:  sen  *  *  *  *  *  *  de  gö nül  | 
G8 g3^f edef g8  | ^f4 g4 g4 g4 b8  | \
w:  den    |  Bül bül  gi bi  yan  | 
b2ag ^f4 g3a feed d6z2  | 
w:  maz *  *  *  dı  *  gö *  *  *  nül   | 
d2ed c4 g4 a4 b3/2a/(3g^fg (3baggf  | \
w:  sev *  *  *  di ği  gül  | 
g8 a3g ag^fg a8  | 
w:  den   SAZ  | 
g3a a4 a4 a2g2 a2_1/4b2 c'2d'2  | \
w:  Bül bül  gi bi  yan  | 
c'2d'c' bagf ag2f feed d6z2  | 
w:  maz *  *  *  *  *  *  dı  *  *  gö *  *  *  nül   | 
^f2gf (3ed^cd2 e4 f4 g3/2f/(3ede (3gfeed  | \
w:  sev *  *  *  *  *  *  di ği  gül  | 
d8 dedc BABc d8  | 
w:  den   SAZ  | 
f3e d3c B4 f2g2 _a2g2 f2e2  | e2d4c2 c2dc B2AB c6z2  | 
w:  Bir  *  gün  *  be ni  *  an  |  say *  *  dın  *  *  e *  *  ğer   | 
d2ed cBAB G4 A4 B3/2A/G2 BA(3G^FG  | \
w:  sen  *  *  *  *  *  *  de  gö nül  | 
A8 ABAG AG^FG A8  | 
w:  den   SAZ  | 
G4 d4 c4 B4 e6ed  | d6{e}dc c2dc B2AB G6z2  | \
w:  Bir  gün  be ni  an  |  say *  *  *  dın  *  *  e *  *  ğer   | 
d2ed cBAB G4 A4 B3/2A/(3G^FG B3/2A/GF  | 
w:  sen  *  *  *  *  *  *  de  gö nül  | 
G8 |
w:  den    | 


